public/icons/icon/clipboard-copy.svg

<svg xmlns="http://www.w3.org/2000/svg" width="30" height="30" fill="none"><path fill="#000" fill-rule="evenodd" d="M8 2v2h10V2H8Zm-2-.5A1.5 1.5 0 0 1 7.5 0h11A1.5 1.5 0 0 1 20 1.5V2h1a3 3 0 0 1 3 3v9h-2V5a1 1 0 0 0-1-1h-1v.5A1.5 1.5 0 0 1 18.5 6h-11A1.5 1.5 0 0 1 6 4.5V4H5a1 1 0 0 0-1 1v20a1 1 0 0 0 1 1h7v2H5a3 3 0 0 1-3-3V5a3 3 0 0 1 3-3h1v-.5Z" clip-rule="evenodd"/><path fill="#000" d="M28 29a1 1 0 1 1-2 0 1 1 0 0 1 2 0Zm0-4a1 1 0 1 1-2 0 1 1 0 0 1 2 0Zm0-4a1 1 0 1 1-2 0 1 1 0 0 1 2 0Zm0-4a1 1 0 1 1-2 0 1 1 0 0 1 2 0Zm-4 0a1 1 0 1 1-2 0 1 1 0 0 1 2 0Zm-4 0a1 1 0 1 1-2 0 1 1 0 0 1 2 0Zm-4 0a1 1 0 1 1-2 0 1 1 0 0 1 2 0Zm0 4a1 1 0 1 1-2 0 1 1 0 0 1 2 0Zm0 4a1 1 0 1 1-2 0 1 1 0 0 1 2 0Zm0 4a1 1 0 1 1-2 0 1 1 0 0 1 2 0Zm4 0a1 1 0 1 1-2 0 1 1 0 0 1 2 0Zm4 0a1 1 0 1 1-2 0 1 1 0 0 1 2 0Z"/></svg>

<svg xmlns="http://www.w3.org/2000/svg" width="30" height="30" fill="none"><path fill="#000" fill-rule="evenodd" d="M8 2v2h10V2H8Zm-2-.5A1.5 1.5 0 0 1 7.5 0h11A1.5 1.5 0 0 1 20 1.5V2h1a3 3 0 0 1 3 3v9h-2V5a1 1 0 0 0-1-1h-1v.5A1.5 1.5 0 0 1 18.5 6h-11A1.5 1.5 0 0 1 6 4.5V4H5a1 1 0 0 0-1 1v20a1 1 0 0 0 1 1h7v2H5a3 3 0 0 1-3-3V5a3 3 0 0 1 3-3h1v-.5Z" clip-rule="evenodd"/><path fill="#000" d="M28 29a1 1 0 1 1-2 0 1 1 0 0 1 2 0ZM28 25a1 1 0 1 1-2 0 1 1 0 0 1 2 0ZM28 21a1 1 0 1 1-2 0 1 1 0 0 1 2 0ZM28 17a1 1 0 1 1-2 0 1 1 0 0 1 2 0ZM24 17a1 1 0 1 1-2 0 1 1 0 0 1 2 0ZM20 17a1 1 0 1 1-2 0 1 1 0 0 1 2 0ZM16 17a1 1 0 1 1-2 0 1 1 0 0 1 2 0ZM16 21a1 1 0 1 1-2 0 1 1 0 0 1 2 0ZM16 25a1 1 0 1 1-2 0 1 1 0 0 1 2 0ZM16 29a1 1 0 1 1-2 0 1 1 0 0 1 2 0ZM20 29a1 1 0 1 1-2 0 1 1 0 0 1 2 0ZM24 29a1 1 0 1 1-2 0 1 1 0 0 1 2 0Z"/></svg>
